src/24/actions/view-filter.svg

<svg xmlns="http://www.w3.org/2000/svg" viewBox="0 0 24 24">
  <defs id="defs3051">
    <style type="text/css" id="current-color-scheme">
      .ColorScheme-Text {
        color:#5d656b;
      }
      </style>
  </defs>
 <path style="fill:currentColor;fill-opacity:1;stroke:none" 
     d="M 6 4 L 5 5 L 5 6 L 5 6.3046875 L 10 13.367188 L 10 17 L 10 17.039062 L 13.990234 20 L 14 20 L 14 13.367188 L 19 6.3046875 L 19 5 L 18 4 L 6 4 z M 6 5 L 18 5 L 18 5.9882812 L 13.035156 13 L 13 13 L 13 13.048828 L 13 14 L 13 18.019531 L 11 16.535156 L 11 14 L 11 13.048828 L 11 13 L 10.964844 13 L 6 5.9882812 L 6 5 z M 7 6 L 9 9 L 9 7 L 11 6 L 7 6 z "
     class="ColorScheme-Text"
     />
</svg>

<svg xmlns="http://www.w3.org/2000/svg" viewBox="0 0 24 24"><path d="M6 4L5 5v1.305l5 7.062v3.673L13.99 20H14v-6.633l5-7.062V5l-1-1H6zm0 1h12v.988L13.035 13H13v5.02l-2-1.485V13h-.035L6 5.988V5zm1 1l2 3V7l2-1H7z" fill="currentColor" color="#5d656b"/></svg>
